X: 247
T: Polonäs, sexdregasamlingen del 2 nr 69
S: efter Anders Larsson
B: Sexdregasamlingen del 2 nr 69
O: Sexdrega, Västergötland
R: Slängpolska
Z: 2008-05-31 av Nils L
M: 3/4
L: 1/16
K: D
d2de f2ed e4   | d4   cdec d4   | e2ec A2Ac e2ef | gfge f4 d4   ::
A2Bc d2A2 B2c2 | B2A2 BcBA G4   | B2cd e2B2 c2d2 | c2B2 cdcB A4  |
dedc d2f2 f2a2 | dedc d2g2 g2b2 | a2gf g2fe f2ed | e2dc d4 D4   :|
(:musicend:)

(:music:)
